X:1
T:Christus Consolator, 85.83
T:Christus Consolator, 85.83
T:John Bacchus Dykes, 1868
T:Public Domain Courtesy of the Cyber Hymnal™
C:John Bacchus Dykes, 1868
Z:Public Domain
Z:Courtesy of the Cyber Hymnal™
%%score ( 1 2 ) ( 3 4 )
L:1/8
Q:1/4=95
M:3/4
K:F
V:1 treble 
V:2 treble 
V:3 bass 
V:4 bass 
V:1
 [D^F][DF] | [DG]3 [DB] [_EA][E^F] | [DG]2 D2 [D^F][DG] | (d2 c2) B2 | [^FA]2 A4 | %5
 [DA][^CA] [Dd][D=c] [DB][DA] | B4 [FA]2- | [FA]2"^rall." [CF]2 [CEG]2 | !fermata![CF]4 |] %9
V:2
 x2 | x6 | x2 D2 x2 | D4 (DE) | x2 (E2 E2) | x6 | (D2 E2) x2 | x6 | x4 |] %9
V:3
 [D,A,][D,A,] | [G,B,]3 [G,D] [G,C][G,C] | ([G,B,][A,C]) [B,D]2 [A,C][G,B,] | [^F,A,]4 (D^C) | %4
 [D,D]2 (A,2 G,2) | [D,^F,][E,G,] [F,A,][F,A,] [F,D][F,C] | [G,B,]4 [F,C]2 | [C,C]2 A,2 B,2 | %8
 !fermata![F,A,]4 |] %9
V:4
 x2 | x6 | x6 | x4 G,2 | x2 D,4 | x6 | x6 | x2 C,4 | x4 |] %9

